slides/figures/two_gaussians_drift_minimal.svg

<?xml version="1.0" encoding="UTF-8" standalone="no"?>
<svg
   width="528.144525pt"
   height="213.948741pt"
   viewBox="23.928 8.23125 528.144525 213.94875"
   version="1.1"
   id="svg3"
   sodipodi:docname="two_gaussians_drift_minimal.svg"
   xmlns:inkscape="http://www.inkscape.org/namespaces/inkscape"
   xmlns:sodipodi="http://sodipodi.sourceforge.net/DTD/sodipodi-0.dtd"
   xmlns="http://www.w3.org/2000/svg"
   xmlns:svg="http://www.w3.org/2000/svg"
   xmlns:rdf="http://www.w3.org/1999/02/22-rdf-syntax-ns#"
   xmlns:cc="http://creativecommons.org/ns#"
   xmlns:dc="http://purl.org/dc/elements/1.1/">
  <sodipodi:namedview
     id="namedview3"
     pagecolor="#ffffff"
     bordercolor="#000000"
     borderopacity="0.25"
     inkscape:showpageshadow="2"
     inkscape:pageopacity="0.0"
     inkscape:pagecheckerboard="0"
     inkscape:deskcolor="#d1d1d1"
     inkscape:document-units="pt" />
  <metadata
     id="metadata1">
    <rdf:RDF>
      <cc:Work>
        <dc:type
           rdf:resource="http://purl.org/dc/dcmitype/StillImage" />
        <dc:date>2026-01-10T13:44:22.257130</dc:date>
        <dc:format>image/svg+xml</dc:format>
        <dc:creator>
          <cc:Agent>
            <dc:title>Matplotlib v3.7.5, https://matplotlib.org/</dc:title>
          </cc:Agent>
        </dc:creator>
      </cc:Work>
    </rdf:RDF>
  </metadata>
  <defs
     id="defs1">
    <style
       type="text/css"
       id="style1">*{stroke-linejoin: round; stroke-linecap: butt}</style>
  </defs>
  <g
     id="figure_1">
    <g
       id="patch_1">
      <path
         d="M 0,230.4 H 576 V 0 H 0 Z"
         style="fill:none"
         id="path1" />
    </g>
    <g
       id="axes_1">
      <g
         id="line2d_1">
        <path
           d="m 26.181818,219.92649 45.419668,-0.11533 12.228372,-0.24316 8.297824,-0.37439 6.550914,-0.51738 5.240734,-0.6301 4.36727,-0.7276 3.93055,-0.85763 3.93055,-1.09592 3.49382,-1.21551 3.05709,-1.28277 3.0571,-1.518 3.05709,-1.78451 2.62036,-1.76653 2.62037,-2.00769 2.62036,-2.27043 2.62037,-2.55464 2.62037,-2.85983 2.62036,-3.18509 2.62037,-3.52895 2.62036,-3.88942 2.62037,-4.26394 2.62036,-4.64933 3.0571,-5.92051 3.05709,-6.45811 3.05709,-6.98992 3.05709,-7.50542 3.49383,-9.1726 3.93054,-11.00308 4.36728,-12.93201 5.67746,-17.57264 11.35491,-35.34479 3.93055,-11.444862 3.49382,-9.478403 3.0571,-7.605887 2.62036,-5.914619 2.18364,-4.449434 2.18364,-3.974228 2.18364,-3.46568 1.74691,-2.386448 1.74691,-2.028919 1.74691,-1.660152 1.74691,-1.282134 1.31018,-0.709127 1.31018,-0.490168 1.31019,-0.269657 1.31018,-0.04829 1.31018,0.173229 1.31018,0.394198 1.31019,0.613918 1.31018,0.831698 1.31018,1.04685 1.74691,1.724696 1.74691,2.091657 1.74691,2.447048 1.74691,2.789004 2.18364,3.943859 2.18364,4.421219 2.62036,5.883881 2.62037,6.449788 3.05709,8.141801 3.49382,9.968492 4.36728,13.181312 7.42437,23.279981 6.98764,21.658077 4.36727,12.88645 3.93055,10.95092 3.49382,9.11962 3.49382,8.47877 3.0571,6.86244 3.05709,6.32829 3.05709,5.79074 3.0571,5.25888 2.62036,4.09434 2.62037,3.72577 2.62036,3.37247 2.62037,3.03674 2.62036,2.72034 2.62037,2.42447 2.62036,2.14986 2.62037,1.89682 3.05709,1.92178 3.0571,1.63993 3.05709,1.39014 3.49382,1.32163 3.49382,1.07673 3.93055,0.9657 4.36727,0.82368 4.80401,0.66728 5.67746,0.54687 6.55091,0.40235 8.73455,0.29679 12.6651,0.17864 24.45674,0.0712 137.56919,0.006 v 0"
           clip-path="url(#p5724c3c555)"
           style="fill:none;stroke:#1f77b4;stroke-width:3;stroke-linecap:square"
           id="path2" />
      </g>
      <g
         id="line2d_2">
        <path
           d="m 26.181818,219.92723 90.839332,-0.10886 17.46911,-0.24293 11.79164,-0.38061 8.73455,-0.49072 7.42437,-0.63027 6.55092,-0.77994 5.67745,-0.89531 5.24073,-1.04992 4.80401,-1.1875 4.36727,-1.29686 4.36728,-1.5329 3.93055,-1.60571 3.93055,-1.84255 3.93054,-2.10126 3.93055,-2.38126 3.49382,-2.36815 3.49382,-2.6185 3.49382,-2.88045 3.49382,-3.15219 3.49383,-3.43136 3.49382,-3.71529 3.93054,-4.52094 3.93055,-4.87912 3.93055,-5.22783 4.36728,-6.19754 4.36727,-6.5745 5.24073,-8.32292 6.11419,-10.17859 9.17128,-15.78009 9.17128,-15.63775 5.24073,-8.501098 4.36727,-6.669453 3.93055,-5.583288 3.49382,-4.564677 3.0571,-3.644441 3.05709,-3.284481 2.62036,-2.506437 2.62037,-2.203659 2.62037,-1.886037 2.18363,-1.319751 2.18364,-1.083955 2.18364,-0.842974 2.18364,-0.597944 2.18363,-0.350031 2.18364,-0.10043 2.18364,0.149659 2.18364,0.399022 2.18364,0.646461 2.18363,0.890786 2.18364,1.130834 2.18364,1.365478 2.62036,1.939094 2.62037,2.254416 2.62037,2.554575 2.62036,2.837749 3.0571,3.643685 3.05709,3.971707 3.49382,4.896813 3.93055,5.900649 4.36727,6.949638 5.67746,9.47731 10.48146,18.062 7.8611,13.34387 5.67746,9.21859 4.804,7.40329 4.36728,6.35354 4.36727,5.95534 3.93055,4.99734 3.93055,4.6416 3.93055,4.28069 3.93054,3.92053 3.49383,3.18726 3.49382,2.91445 3.49382,2.65113 3.49382,2.39922 3.93055,2.41416 3.93054,2.13179 3.93055,1.87066 3.93055,1.63132 4.36728,1.5585 4.36727,1.31952 4.804,1.20921 5.24074,1.07002 5.67745,0.91329 6.11419,0.75069 6.98764,0.62611 8.29783,0.50497 10.04473,0.37401 13.10183,0.25249 20.08947,0.14196 6.11418,0.0166 v 0"
           clip-path="url(#p5724c3c555)"
           style="fill:none;stroke:#ff7f0e;stroke-width:3;stroke-linecap:square"
           id="path3" />
      </g>
    </g>
  </g>
  <defs
     id="defs3">
    <clipPath
       id="p5724c3c555">
      <rect
         x="0"
         y="0"
         width="576"
         height="230.39999"
         id="rect3" />
    </clipPath>
  </defs>
</svg>

<?xml version="1.0" encoding="utf-8" standalone="no"?>
<!DOCTYPE svg PUBLIC "-//W3C//DTD SVG 1.1//EN"
  "http://www.w3.org/Graphics/SVG/1.1/DTD/svg11.dtd">
<svg xmlns:xlink="http://www.w3.org/1999/xlink" width="576pt" height="230.4pt" viewBox="0 0 576 230.4" xmlns="http://www.w3.org/2000/svg" version="1.1">
 <metadata>
  <rdf:RDF xmlns:dc="http://purl.org/dc/elements/1.1/" xmlns:cc="http://creativecommons.org/ns#" xmlns:rdf="http://www.w3.org/1999/02/22-rdf-syntax-ns#">
   <cc:Work>
    <dc:type rdf:resource="http://purl.org/dc/dcmitype/StillImage"/>
    <dc:date>2026-01-10T13:44:22.257130</dc:date>
    <dc:format>image/svg+xml</dc:format>
    <dc:creator>
     <cc:Agent>
      <dc:title>Matplotlib v3.7.5, https://matplotlib.org/</dc:title>
     </cc:Agent>
    </dc:creator>
   </cc:Work>
  </rdf:RDF>
 </metadata>
 <defs>
  <style type="text/css">*{stroke-linejoin: round; stroke-linecap: butt}</style>
 </defs>
 <g id="figure_1">
  <g id="patch_1">
   <path d="M 0 230.4 
L 576 230.4 
L 576 0 
L 0 0 
L 0 230.4 
z
" style="fill: none"/>
  </g>
  <g id="axes_1">
   <g id="line2d_1">
    <path d="M 26.181818 219.926492 
L 71.601486 219.811162 
L 83.829858 219.568004 
L 92.127682 219.193614 
L 98.678596 218.676234 
L 103.919327 218.046131 
L 108.286602 217.318531 
L 112.217151 216.460905 
L 116.147699 215.364984 
L 119.641519 214.149471 
L 122.698612 212.866703 
L 125.755706 211.348697 
L 128.812799 209.56419 
L 131.433164 207.797663 
L 134.053529 205.789966 
L 136.673895 203.519539 
L 139.29426 200.964905 
L 141.914626 198.10507 
L 144.534991 194.919983 
L 147.155357 191.391034 
L 149.775722 187.50161 
L 152.396088 183.237667 
L 155.016453 178.588339 
L 158.073546 172.667834 
L 161.130639 166.209724 
L 164.187732 159.2198 
L 167.244825 151.714381 
L 170.738646 142.541781 
L 174.669194 131.538702 
L 179.03647 118.606688 
L 184.713928 101.034045 
L 196.068845 65.68926 
L 199.999393 54.244398 
L 203.493214 44.765995 
L 206.550307 37.160108 
L 209.170673 31.245489 
L 211.35431 26.796055 
L 213.537948 22.821827 
L 215.721586 19.356147 
L 217.468496 16.969699 
L 219.215407 14.94078 
L 220.962317 13.280628 
L 222.709227 11.998494 
L 224.01941 11.289367 
L 225.329593 10.799199 
L 226.639776 10.529542 
L 227.949958 10.48125 
L 229.260141 10.654479 
L 230.570324 11.048677 
L 231.880506 11.662595 
L 233.190689 12.494293 
L 234.500872 13.541143 
L 236.247782 15.265839 
L 237.994693 17.357496 
L 239.741603 19.804544 
L 241.488513 22.593548 
L 243.672151 26.537407 
L 245.855789 30.958626 
L 248.476154 36.842507 
L 251.09652 43.292295 
L 254.153613 51.434096 
L 257.647433 61.402588 
L 262.014709 74.5839 
L 269.439078 97.863881 
L 276.426719 119.521961 
L 280.793995 132.408412 
L 284.724543 143.359329 
L 288.218364 152.478953 
L 291.712184 160.957724 
L 294.769277 167.820156 
L 297.82637 174.14845 
L 300.883463 179.939195 
L 303.940557 185.198073 
L 306.560922 189.292415 
L 309.181287 193.018183 
L 311.801653 196.390648 
L 314.422018 199.427388 
L 317.042384 202.147726 
L 319.662749 204.572196 
L 322.283115 206.722061 
L 324.90348 208.618883 
L 327.960573 210.540656 
L 331.017666 212.18059 
L 334.074759 213.570733 
L 337.56858 214.892362 
L 341.0624 215.969095 
L 344.992949 216.934793 
L 349.360224 217.758466 
L 354.164228 218.425747 
L 359.841686 218.972619 
L 366.3926 219.374969 
L 375.127151 219.671756 
L 387.792251 219.850405 
L 412.248995 219.92156 
L 549.818182 219.927273 
L 549.818182 219.927273 
" clip-path="url(#p5724c3c555)" style="fill: none; stroke: #1f77b4; stroke-width: 3; stroke-linecap: square"/>
   </g>
   <g id="line2d_2">
    <path d="M 26.181818 219.927226 
L 117.021154 219.818368 
L 134.490257 219.575438 
L 146.281902 219.194832 
L 155.016453 218.704113 
L 162.440822 218.07384 
L 168.991736 217.293898 
L 174.669194 216.398595 
L 179.909925 215.348674 
L 184.713928 214.161166 
L 189.081204 212.864311 
L 193.44848 211.331407 
L 197.379028 209.725702 
L 201.309576 207.883145 
L 205.240124 205.781894 
L 209.170673 203.400626 
L 212.664493 201.032478 
L 216.158314 198.413985 
L 219.652134 195.533526 
L 223.145955 192.381345 
L 226.639776 188.949982 
L 230.133596 185.234693 
L 234.064144 180.713746 
L 237.994693 175.834631 
L 241.925241 170.606798 
L 246.292516 164.40926 
L 250.659792 157.83476 
L 255.900523 149.511838 
L 262.014709 139.333251 
L 271.185988 123.553164 
L 280.357267 107.915408 
L 285.597998 99.414312 
L 289.965274 92.744859 
L 293.895822 87.161571 
L 297.389643 82.596894 
L 300.446736 78.952453 
L 303.503829 75.667972 
L 306.124194 73.161535 
L 308.74456 70.957876 
L 311.364925 69.071839 
L 313.548563 67.752088 
L 315.732201 66.668133 
L 317.915839 65.825159 
L 320.099477 65.227215 
L 322.283115 64.877184 
L 324.466753 64.776754 
L 326.65039 64.926413 
L 328.834028 65.325435 
L 331.017666 65.971896 
L 333.201304 66.862682 
L 335.384942 67.993516 
L 337.56858 69.358994 
L 340.188945 71.298088 
L 342.809311 73.552504 
L 345.429676 76.107079 
L 348.050042 78.944828 
L 351.107135 82.588513 
L 354.164228 86.56022 
L 357.658048 91.457033 
L 361.588597 97.357682 
L 365.955872 104.307315 
L 371.633331 113.784629 
L 382.114793 131.846635 
L 389.975889 145.190504 
L 395.653347 154.409087 
L 400.457351 161.812384 
L 404.824627 168.165923 
L 409.191902 174.121265 
L 413.122451 179.118601 
L 417.052999 183.760196 
L 420.983547 188.04089 
L 424.914095 191.961422 
L 428.407916 195.148676 
L 431.901736 198.063126 
L 435.395557 200.714259 
L 438.889378 203.113484 
L 442.819926 205.527639 
L 446.750474 207.65943 
L 450.681022 209.530085 
L 454.61157 211.161413 
L 458.978846 212.719914 
L 463.346122 214.039427 
L 468.150125 215.248637 
L 473.390856 216.318662 
L 479.068315 217.231952 
L 485.182501 217.982639 
L 492.170142 218.608746 
L 500.467966 219.113721 
L 510.5127 219.487729 
L 523.614527 219.740217 
L 543.703996 219.882182 
L 549.818182 219.89881 
L 549.818182 219.89881 
" clip-path="url(#p5724c3c555)" style="fill: none; stroke: #ff7f0e; stroke-width: 3; stroke-linecap: square"/>
   </g>
  </g>
 </g>
 <defs>
  <clipPath id="p5724c3c555">
   <rect x="0" y="-0" width="576" height="230.4"/>
  </clipPath>
 </defs>
</svg>
